X:1
T:Straighten Up & Fly Right
C:Nat King Cole
L:1/8
M:C
I:linebreak $
K:Ab
"Ab" AAAA"Ab/C" AAAA |"Db7" AAAA"Do" z2 F2 |"Ab/Eb" ABGA"Fm" FGAB |"E7" c2 A2"Eb7" B3 E |$
"Ab" AAAA"Ab/C" AAAA |"Db7" AAAA"Do" z2 A2 |"Ab" ABGA"Fm" FGAB |"Bbm" =B"Eb7" _B3"Ab6" A4 ||$
S"Ab" z E F2"Ab/C" A2 F2 |"Db7" A4"Do" B4 |"Ab" z E F2"Ab/C" A2 F2 |"Bb7" A4"Eb7" G4 |$
"Ab" z E F2"Ab/C" A2 F2 |"Db7" A4"Do" B4 |"Ab/C" A A3"Bo" AFAB |
"Bbm" c2"Eb7" B2"Ab6""_Fine" A4 |][K:C]$"C7" cccc cc c2 |"Gm" c2 c2"C7" c3 c ||
[K:F]"F7" c2 A2 FGAB |"Cm" c2 A2"F7" F4 ||$[K:Bb]"Bb7" BBBB BB B2 |"Fm" B3 B"Bb7" B4 ||
[K:Eb]"Eb7" z8 ||[K:Ab]"Bbm" z4"Eb7""_D.S. al Fine" z4 ||

